Sources/FrostedUI/Resources/Icons.xcassets/atom32.imageset/atom-32.svg

<svg width="32" height="32" viewBox="0 0 32 32" fill="none" xmlns="http://www.w3.org/2000/svg" data-fui-icon="true">
  <path
    d="M16 1C17.2808 1 18.3162 1.70556 19.0752 2.57227C19.8367 3.44186 20.454 4.61403 20.9424 5.93262C21.0552 6.2372 21.1618 6.5541 21.2637 6.88184C21.5986 6.80612 21.9267 6.74115 22.2471 6.68652C23.6331 6.45021 24.9571 6.39847 26.0908 6.62305C27.2209 6.84696 28.3498 7.39081 28.9902 8.5C29.6307 9.60923 29.5371 10.8586 29.166 11.9492C28.7937 13.0434 28.0872 14.1639 27.1895 15.2461C26.9817 15.4965 26.7597 15.7475 26.5264 16C26.7597 16.2525 26.9817 16.5035 27.1895 16.7539C28.0872 17.8361 28.7937 18.9566 29.166 20.0508C29.5371 21.1414 29.6307 22.3908 28.9902 23.5C28.3498 24.6092 27.2209 25.153 26.0908 25.377C24.9571 25.6015 23.6331 25.5498 22.2471 25.3135C21.9267 25.2588 21.5987 25.1929 21.2637 25.1172C21.1617 25.4452 21.0553 25.7625 20.9424 26.0674C20.454 27.386 19.8367 28.5581 19.0752 29.4277C18.3162 30.2944 17.2808 31 16 31C14.7192 31 13.6837 30.2944 12.9248 29.4277C12.1633 28.5581 11.546 27.386 11.0576 26.0674C10.9447 25.7625 10.8383 25.4452 10.7363 25.1172C10.4013 25.1929 10.0733 25.2588 9.75293 25.3135C8.36692 25.5498 7.04294 25.6015 5.90918 25.377C4.77912 25.153 3.65019 24.6092 3.00977 23.5C2.36935 22.3908 2.46286 21.1414 2.83398 20.0508C3.20634 18.9566 3.91285 17.8361 4.81055 16.7539C5.01816 16.5036 5.23946 16.2524 5.47266 16C5.23946 15.7476 5.01816 15.4964 4.81055 15.2461C3.91285 14.1639 3.20633 13.0434 2.83398 11.9492C2.46286 10.8586 2.36935 9.60923 3.00977 8.5C3.65019 7.39081 4.77912 6.84696 5.90918 6.62305C7.04294 6.39847 8.36692 6.45021 9.75293 6.68652C10.0733 6.74115 10.4014 6.80612 10.7363 6.88184C10.8382 6.5541 10.9448 6.2372 11.0576 5.93262C11.546 4.61404 12.1633 3.44186 12.9248 2.57227C13.6837 1.70556 14.7192 1.00002 16 1ZM16 23.2998C14.6896 23.8925 13.4061 24.3738 12.1885 24.7354C13.1056 27.6502 14.4725 29.5 16 29.5C17.5275 29.5 18.8934 27.6501 19.8105 24.7354C18.5932 24.3738 17.3101 23.8923 16 23.2998ZM6.5293 17.0664C4.46334 19.3182 3.54483 21.427 4.30859 22.75C5.07232 24.0728 7.35715 24.33 10.3398 23.667C10.0443 22.432 9.81958 21.0801 9.67773 19.6494C8.50941 18.811 7.45113 17.9401 6.5293 17.0664ZM25.4697 17.0664C24.5478 17.9401 23.4897 18.811 22.3213 19.6494C22.1794 21.0802 21.9548 22.432 21.6592 23.667C24.6423 24.3303 26.9276 24.073 27.6914 22.75C28.4552 21.427 27.536 19.3184 25.4697 17.0664ZM11.3203 20.7598C11.4447 21.6509 11.6031 22.4972 11.791 23.2871C12.5695 23.0549 13.3824 22.7706 14.2168 22.4326C13.7287 22.1787 13.2388 21.9111 12.75 21.6289C12.261 21.3466 11.7845 21.0556 11.3203 20.7598ZM20.6787 20.7598C20.2148 21.0555 19.7387 21.3467 19.25 21.6289C18.761 21.9112 18.2706 22.1786 17.7822 22.4326C18.6166 22.7707 19.4296 23.0549 20.208 23.2871C20.396 22.4971 20.5543 21.651 20.6787 20.7598ZM16 10.3535C15.1756 10.7466 14.3386 11.1858 13.5 11.6699C12.6613 12.1542 11.8621 12.6593 11.1094 13.1768C11.0376 14.0873 11 15.0317 11 16C11 16.9679 11.0377 17.9121 11.1094 18.8223C11.8623 19.3399 12.6611 19.8458 13.5 20.3301C14.3384 20.8141 15.1757 21.2524 16 21.6455C16.8243 21.2524 17.6616 20.8141 18.5 20.3301C19.3386 19.8459 20.1369 19.3397 20.8896 18.8223C20.9614 17.912 21 16.968 21 16C21 15.0317 20.9614 14.0873 20.8896 13.1768C20.1371 12.6594 19.3385 12.154 18.5 11.6699C17.6614 11.1858 16.8244 10.7466 16 10.3535ZM16 14C17.1046 14 18 14.8954 18 16C18 17.1046 17.1046 18 16 18C14.8955 18 14 17.1045 14 16C14 14.8955 14.8955 14 16 14ZM9.53711 14.3281C8.82747 14.8815 8.17411 15.4422 7.58398 16C8.17398 16.5577 8.82765 17.1176 9.53711 17.6709C9.51301 17.1216 9.5 16.564 9.5 16C9.5 15.4357 9.51298 14.8778 9.53711 14.3281ZM22.4619 14.3281C22.486 14.8778 22.5 15.4357 22.5 16C22.5 16.564 22.486 17.1216 22.4619 17.6709C23.1714 17.1176 23.825 16.5577 24.415 16C23.8249 15.4422 23.1716 14.8815 22.4619 14.3281ZM10.3398 8.33203C7.35725 7.66905 5.07231 7.92721 4.30859 9.25C3.54487 10.5728 4.46368 12.681 6.5293 14.9326C7.45114 14.059 8.50943 13.188 9.67773 12.3496C9.81962 10.9189 10.0442 9.567 10.3398 8.33203ZM27.6914 9.25C26.9276 7.92707 24.6422 7.66879 21.6592 8.33203C21.9548 9.56704 22.1794 10.9188 22.3213 12.3496C23.4896 13.188 24.5478 14.059 25.4697 14.9326C27.5357 12.6808 28.4552 10.5729 27.6914 9.25ZM11.791 8.71191C11.603 9.50183 11.4447 10.3481 11.3203 11.2393C11.7843 10.9435 12.2612 10.6533 12.75 10.3711C13.2389 10.0888 13.7286 9.82042 14.2168 9.56641C13.3824 9.22841 12.5694 8.94411 11.791 8.71191ZM20.208 8.71191C19.4296 8.94414 18.6166 9.22839 17.7822 9.56641C18.2707 9.82053 18.7608 10.0887 19.25 10.3711C19.7386 10.6532 20.2149 10.9436 20.6787 11.2393C20.5543 10.348 20.396 9.50186 20.208 8.71191ZM16 2.5C14.4726 2.50005 13.1056 4.34932 12.1885 7.26367C13.4061 7.62519 14.6896 8.10657 16 8.69922C17.31 8.10672 18.5932 7.62516 19.8105 7.26367C18.8934 4.34946 17.5273 2.5 16 2.5Z"
    fill="currentColor"
  />
</svg>

<svg xmlns="http://www.w3.org/2000/svg" width="32" height="32" fill="none" data-fui-icon="true" viewBox="0 0 32 32"><path fill="currentColor" d="M16 1c1.28 0 2.316.706 3.075 1.572.762.87 1.379 2.042 1.867 3.36q.17.458.322.95.503-.113.983-.195c1.386-.237 2.71-.289 3.844-.064 1.13.224 2.259.768 2.9 1.877.64 1.11.546 2.359.175 3.45-.372 1.093-1.079 2.214-1.977 3.296q-.312.376-.663.754.352.378.663.754c.898 1.082 1.605 2.203 1.977 3.297.371 1.09.465 2.34-.176 3.449-.64 1.11-1.77 1.653-2.9 1.877-1.133.225-2.457.173-3.843-.063a19 19 0 0 1-.983-.197 19 19 0 0 1-.322.95c-.488 1.319-1.105 2.491-1.867 3.36C18.316 30.295 17.281 31 16 31c-1.28 0-2.316-.706-3.075-1.572-.762-.87-1.379-2.042-1.867-3.36a19 19 0 0 1-.322-.95q-.503.112-.983.196c-1.386.236-2.71.288-3.844.063-1.13-.224-2.259-.768-2.9-1.877-.64-1.11-.546-2.359-.175-3.45.372-1.093 1.079-2.214 1.977-3.296q.31-.376.662-.754a19 19 0 0 1-.662-.754c-.898-1.082-1.605-2.203-1.977-3.297-.371-1.09-.465-2.34.176-3.449.64-1.11 1.77-1.653 2.9-1.877 1.133-.225 2.457-.173 3.843.064q.48.082.983.195.153-.492.322-.95c.488-1.318 1.105-2.49 1.867-3.36C13.684 1.706 14.719 1 16 1m0 22.3a30 30 0 0 1-3.812 1.435C13.106 27.65 14.473 29.5 16 29.5c1.527 0 2.893-1.85 3.81-4.765A30 30 0 0 1 16 23.3m-9.47-6.234c-2.067 2.252-2.985 4.361-2.221 5.684s3.048 1.58 6.03.917a30 30 0 0 1-.661-4.018 30 30 0 0 1-3.149-2.583m18.94 0a30 30 0 0 1-3.149 2.583 30 30 0 0 1-.662 4.018c2.983.663 5.269.406 6.032-.917.764-1.323-.155-3.432-2.221-5.684M11.32 20.76c.125.89.283 1.737.471 2.527a27 27 0 0 0 2.426-.854 38 38 0 0 1-2.897-1.673m9.359 0q-.696.444-1.429.869-.735.423-1.468.804c.835.338 1.648.622 2.426.854.188-.79.346-1.636.47-2.527M16 10.353a36 36 0 0 0-4.89 2.824A36 36 0 0 0 11 16c0 .968.038 1.912.11 2.822A36 36 0 0 0 16 21.645a36 36 0 0 0 4.89-2.823 36 36 0 0 0 0-5.645A36 36 0 0 0 16 10.354M16 14a2 2 0 1 1 0 4 2 2 0 0 1 0-4m-6.463.328A27 27 0 0 0 7.584 16c.59.558 1.244 1.118 1.953 1.67a38 38 0 0 1 0-3.342m12.925 0q.037.826.038 1.672-.001.847-.038 1.67A27 27 0 0 0 24.415 16a27 27 0 0 0-1.953-1.672M10.34 8.332c-2.983-.663-5.268-.405-6.031.918-.764 1.323.155 3.431 2.22 5.683a30 30 0 0 1 3.149-2.583c.142-1.431.366-2.783.662-4.018m17.351.918c-.763-1.323-3.049-1.581-6.032-.918.296 1.235.52 2.587.662 4.018a30 30 0 0 1 3.149 2.583c2.066-2.252 2.985-4.36 2.221-5.683m-15.9-.538c-.188.79-.346 1.636-.47 2.527a38 38 0 0 1 2.896-1.673 27 27 0 0 0-2.426-.854m8.417 0a27 27 0 0 0-2.426.854 38 38 0 0 1 2.897 1.673 27 27 0 0 0-.471-2.527M16 2.5c-1.527 0-2.894 1.85-3.812 4.764 1.218.361 2.502.843 3.812 1.435a30 30 0 0 1 3.81-1.435C18.894 4.349 17.528 2.5 16 2.5"/></svg>
